!!!!SEGMENT: pl-lzu--m-15111--001-010_noskowski-zygmunt--spiewnik-dla-dzieci-op-34-10-taniec.krn
!!!cenid: 18xx:4707
!!!COM: Noskowski, Zygmunt
!!!COM-rismID: pe106604
!!!CDT: 1846/05/02-1909/07/23
!!!CNT: Polish
!!!GTL: Śpiewnik dla dzieci, op. 34
!!!OTL: 10. Taniec
!!!OMV: 010
!!!PDT: 1890
!!!AGN: Secular; Song; Children
!!!YEC: Copyright 2022 Narodowy Instytut Fryderyka Chopina (https://polishscores.org)
!!!YEM: License CC-BY-4.0 (https://creativecommons.org/licenses/by/4.0)
!!!SMS-siglum: PL-LŹu
!!!SMS-shelfmark: M 15111
!!!SMS-variant:
!!!SMS-altvar:
!!!SMS-shelfwork: 001-010 G
!!!NIFC-rismSourceID: 1001234040
!!!NIFC-rismChildID: 1001234040
!!!NIFC-islandoraID: pl-lzu:5455
!!!URL-pdf-islandora: https://repozytorium.nifc.pl/islandora/object/pl-lzu%3A5455/datastream/PDF/view
!!!URL-scan: https://polish.musicsources.pl/pl/lokalizacje/galeria/druki-muzyczne/23228/16 @EN{Scan on Polish Music Sources Website} @PL{Skany w portalu Dziedzictwo Muzyki Polskiej w otwartym dostępie}
!!!IIIF:
!!!ONB-nifc:
!!!AIN: 1 piano 1 vox
!!!key: B-
!!!OMD: Poco allegro.
**kern	**kern	**dynam	**kern	**text	**dynam
*part2	*part2	*part2	*part1	*part1	*part1
*staff3	*staff2	*staff2,3	*staff1	*staff1	*staff1
*I"[Piano]	*I"[Piano]	*	*I"[Voice]	*	*
*I'pf	*I'pf	*	*I'V	*	*
*Ipiano	*Ipiano	*	*Ivox	*	*
*ICklav	*ICklav	*	*ICvox	*	*
*IGacomp	*IGacomp	*	*IGsolo	*	*
*>[A,B,C,B]	*>[A,B,C,B]	*>[A,B,C,B]	*>[A,B,C,B]	*>[A,B,C,B]	*>[A,B,C,B]
*>A	*>A	*>A	*>A	*>A	*>A
*clefF4	*clefG2	*	*clefG2	*	*
*k[b-e-]	*k[b-e-]	*	*k[b-e-]	*	*
*B-:	*B-:	*	*B-:	*	*
*M3/4	*M3/4	*	*M3/4	*	*
=1	=1	=1	=1	=1	=1
!	!LO:TX:a:i:t=Tempo Mazura.	!LO:DY:rj	!	!	!
8.BB-\L 8.F	8.d/L 8.f	f	2.r	.	.
16BB-\Jk 16F	16d/Jk 16g	.	.	.	.
4BB-\ 4F	4d/ 4f	.	.	.	.
4BB-\ 4F	4d/ 4g	.	.	.	.
=2	=2	=2	=2	=2	=2
4BB-\ 4F	4d/ 4f	.	2.r	.	.
4BB-\ 4F	4d/ 4g	.	.	.	.
4BB-\ 4F	4d/ 4f	.	.	.	.
=3||	=3||	=3||	=3||	=3||	=3||
*>B	*>B	*>B	*>B	*>B	*>B
!	!	!	!LO:TX:a:rj:t=[segno]	!	!
!	!	!LO:DY:rj	!LO:TX:a:i:t=Chór.	!	!LO:DY:rj
4BB-/	8d/L 8g	f	8d/ 8g	Da-	f
.	8d/J 8f	.	8d/ 8f	-lej	.
4F\ 4B-	4d/ 4dd	.	4d/ 4dd	ra-	.
4F\ 4B-	4d/ 4b-	.	4d/ 4b-	-źno,	.
=4	=4	=4	=4	=4	=4
4BB-/	8e-/L 8g	.	8e-/ 8g	da-	.
.	8e-/J 8b-	.	8e-/ 8b-	-lej	.
4F\ 4c	4e-/ 4a	.	4e-/ 4a	w ko-	.
4F\ 4c	4e-/ 4f	.	4e-/ 4f	-ło,	.
=5	=5	=5	=5	=5	=5
4BB-/	8d/L 8g	.	8d/ 8g	Da-	.
.	8d/J 8a	.	8d/ 8a	-lej	.
4F\ 4B-	4d/ 4b-	.	4d/ 4b-	wszys-	.
4F\ 4B-	4f/ 4dd	.	4f/ 4dd	-cy	.
!!LO:LB:g=original
=6	=6	=6	=6	=6	=6
4DD/	2b-\ 2ff	.	2b-^\ 2ff	wraz!	.
4D\ 4B-	.	.	.	.	.
4F\ 4d	4ryy	.	4r	.	.
=7	=7	=7	=7	=7	=7
*	*	*	*^	*	*
4FF/	8a\L 8cc	.	8a/ 8cc	2ryy	Wszak	.
.	8g\J 8dd	.	8g/ 8dd	.	wy-	.
4F\ 4A	4f\ 4ee-	.	4f/ 4ee-	.	-sko-	.
4F\ 4c	8e-/L 8g	.	(<8g/L	4e-\	-czyć	.
.	8a/J	.	8a/J)	.	.	.
*	*	*	*v	*v	*	*
=8	=8	=8	=8	=8	=8
4BB-/	8d/L 8b-	.	8d/ 8b-	i	.
.	8e-/J 8cc	.	8e-/ 8cc	za-	.
4F\ 4B-	4.f/ 4.dd	.	4.f^>/ 4.dd	-śpie-	.
4F\ 4B-	.	.	.	.	.
.	8f/ 8cc	.	8f,/ 8cc	-wać	.
=9	=9	=9	=9	=9	=9
4GG/	8g/L 8b-	.	8g/ 8b-	U-	.
.	8f/J 8a	.	8f/ 8a	-mie	.
4C\ 4B-	4en/ 4g	.	4en/ 4g	ka-	.
4C\ 4B-	4e/ 4cc	.	4e/ 4cc	-żdy	.
=10	=10	=10	=10	=10	=10
4F\ 4A	2.f/ 2.a	.	2.f/ 2.a	z nas.	.
4C/	.	.	.	.	.
4F\	.	.	.	.	.
!!LO:PB:g=original
=11	=11	=11	=11	=11	=11
4FF/	8e-X/L 8g	.	8e-X/ 8g	Wszak	.
.	8e-/J 8f	.	8e-/ 8f	wy-	.
4F\ 4c	4f/ 4a	.	4f/ 4a	-sko-	.
4F\ 4e-	4a\ 4cc	.	4a/ 4cc	-czyć	.
=12	=12	=12	=12	=12	=12
*	*	*	*^	*	*
4BB-/	8b-\L 8dd	.	8b-\ 8dd	2ryy	i	.
.	8cc\J 8ee-	.	8cc\ 8ee-	.	za-	.
4F\ 4d	4.dd^\ 4.ff	.	4.dd^\ 4.ff	.	-śpie-	.
4F\ 4d	.	.	.	8ryy	.	.
.	8b-\	.	8b-,/	8b-\	-wać	.
*	*	*	*v	*v	*	*
=13	=13	=13	=13	=13	=13
4FF/	8a\L 8cc	.	8a/ 8cc	U-	.
.	8g\J 8dd	.	8g/ 8dd	-mie	.
4A\ 4c	4f\ 4ee-	.	4f/ 4ee-	ka-	.
4F\ 4e-	8g\L 8dd	.	(8g/L 8dd	-żdy	.
.	8a\J 8cc	.	8a/J) 8cc	.	.
=14	=14	=14	=14	=14	=14
*	*	*	*^	*	*
4B-\ 4d	4b-\	.	2b-/	2b-\	z nas!	.
!	!	!LO:DY:t=sfs	!	!	!	!
4BBB-/ 4BB-	4b-\ 4dd 4ff 4bb-	sf	.	.	.	.
!	!	!	!LO:TX:a:i:t=Fine.	!	!	!
4r	4r	.	4r	4ryy	.	.
*	*	*	*v	*v	*	*
!!LO:LB:g=original
=15||	=15||	=15||	=15||	=15||	=15||
*>C	*>C	*>C	*>C	*>C	*>C
!	!	!LO:DY:rj	!LO:TX:a:i:t=Jeden głos.	!	!LO:DY:rj
2GG/ 2D	4.d^>/ 4.g 4.b- 4.dd	f	4.dd^\	Graj	f
.	8g/L	p	8g/	nam	.
4GG/ 4D	8d/ 8b-	.	8b-/	skrzyp-	.
.	8d/J 8b-	.	8b-/	-ku	.
=16	=16	=16	=16	=16	=16
4GG/ 4D	8c/L 8a	.	8a/	kra-	.
.	8f#X/J	.	8f#X/	-ko-	.
4GG/ 4D	4B-/ 4g	.	4g/	-wia-	.
4GG/ 4D	4d/ 4b-	.	4b-,/	-ka,	.
=17	=17	=17	=17	=17	=17
!	!	!LO:DY:rj	!	!	!
2GG/ 2D	4.d^/ 4.g 4.b- 4.dd	f	4.dd^\	A	.
.	8g/L	p	8g/	zaś	.
4GG/ 4D	8d/ 8b-	.	8b-/	po-	.
.	8d/J 8b-	.	8b-/	-tem	.
=18	=18	=18	=18	=18	=18
4GG/ 4D	8c/L 8a	.	8a/	ku-	.
.	8f#X/J	.	8f#X/	-ja-	.
4GG/ 4D	4B-/ 4g	.	4g/	-wia-	.
4GG/ 4D	4d/ 4b-	.	4b-/	-ka,	.
!!LO:LB:g=original
=19	=19	=19	=19	=19	=19
4DD/ 4D	8c/L 8a	.	8a/	I	.
.	8f#X/J	.	8f#X/	ma-	.
4DD/ 4D	4c/ 4d	.	4d/	-zu-	.
4DD/ 4D	4c/ 4f#	.	4f#/	-ra	.
=20	=20	=20	=20	=20	=20
4GG/ 4D	2B-/ 2g	.	2g/	graj!	.
4FFn/ 4Fn	.	.	.	.	.
4EEn/ 4En	4B-/ 4c 4g	.	4r	.	.
=21	=21	=21	=21	=21	=21
!	!	!LO:DY:rj	!	!	!
2FF/ 2C 2F	4.c/ 4.fn 4.a 4.cc	f	4.cc^\	Jak	.
.	8f/L	p	8f/	się	.
4FF/ 4C	8c/ 8a	.	8a/	do-	.
.	8c/J 8a	.	8a/	-brze	.
=22	=22	=22	=22	=22	=22
4FF/ 4C	8B-/L 8g	.	8g/	za-	.
.	8en/J	.	8en/	-po-	.
4FF/ 4C	4A/ 4f	.	4f/	-ci-	.
4FF/ 4C	4c/ 4a	.	4a/	-my,	.
!!LO:PB:g=original
=23	=23	=23	=23	=23	=23
2FF/ 2C	4.c/ 4.f 4.a 4.cc	p	4.cc^\	To	.
.	8f/L	p	8f/	pol-	.
4FF/ 4C	8c/ 8a	.	8a/	-skie-	.
.	8c/J 8a	.	8a/	-go	.
=24	=24	=24	=24	=24	=24
*	*^	*	*	*	*
4FF/ 4C	8g/L	4B-\	.	8g/	sie	.
.	8en/J	.	.	8en/	pu-	.
4FF/ 4C	4A/ 4f	2ryy	.	4f/	-ści-	.
4FF/ 4C	4c/ 4a	.	.	4a/	-my,	.
*	*v	*v	*	*	*	*
=25	=25	=25	=25	=25	=25
4CC/ 4C	(8B-/L 8g	.	8g/	Toż	.
.	8a/J)	.	8a/	to	.
4CC/ 4C	4B-/ 4en 4b-	.	4b-/	bę-	.
4CC/ 4C	(8B-/L 8e 8a	.	(8a/L	-dzie	.
.	8g/J)	.	8g/J)	.	.
=26	=26	=26	=26	=26	=26
4FF/ 4C	2.A/ 2.f	.	2.f/	raj!	.
4FF/ 4C	.	.	.	.	.
4FF/ 4C	.	.	.	.	.
!!LO:LB:g=original
=27	=27	=27	=27	=27	=27
*	*	*	*^	*	*
!	!	!	!LO:TX:a:i:t=Chór	!	!	!
8.F\L	8.f/L	.	8.f/	8.f\	Hop!	.
16F\Jk	16f/Jk	.	16f/	16f\	sa!	.
4F\	4f/	.	4f/	4f\	sa!	.
4F\	4f/	.	4f/	4f\	sa!	.
=28	=28	=28	=28	=28	=28	=28
8.F\L	8.f/L	.	8.f/	8.f\	Hop!	.
!	!	!LO:HP:t=crescendo	!	!	!	!LO:HP:t=crescendo
16F\Jk	16f/Jk	<	16f/	16f\	sa!	<
4F\	4f/	.	4f/	4f\	sa!	.
4F\	4f/	.	4f/	4f\	sa!	.
=29	=29	=29	=29	=29	=29	=29
4F\	4f/	.	4f/	4f\	Hop!	.
4FF/ 4F	4A/ 4f	.	4f/	4f\	hop!	.
4FF/ 4F	4B-/ 4f	.	4f/	4f\	hop!	.
=30	=30	=30	=30	=30	=30	=30
4GG#X/ 4F	4Bn/ 4f	.	4f/	4f\	Hop!	.
4AA/ 4F	4c/ 4f	.	4f/	4f\	hop!	.
!	!	!	!LO:TX:rj:t=[segno]	!	!	!
!LO:TX:b:i:rj:t=D. S. al Fine	!	!	!LO:TX:a:i:t=D.S.	!	!	!
4AA/ 4F	4c/ 4e- 4f	.	4f/	4f\	hop!	.
*	*	*	*v	*v	*	*
==	==	==	==	==	==
*-	*-	*-	*-	*-	*-
!!!system-decoration: p1{p2}
!!!RDF**kern: > = above
!!!RDF**kern: < = below
!!!ENC: Andrzej Gręziak
!!!END: 2025-03-04
!!!ENC: Marta Lawrence
!!!END: 2025-03-20
